imgs/RomaniaFlag.svg

<svg width="25" height="18" viewBox="0 0 25 18" fill="none" xmlns="http://www.w3.org/2000/svg">
<path fill-rule="evenodd" clip-rule="evenodd" d="M0.00683594 0H8.00559V18H0.00683594V0Z" fill="#00319C"/>
<path fill-rule="evenodd" clip-rule="evenodd" d="M8.00684 0H16.0093V18H8.00684V0Z" fill="#FFDE00"/>
<path fill-rule="evenodd" clip-rule="evenodd" d="M16.0078 0H24.0066V18H16.0078V0Z" fill="#DE2110"/>
</svg>

<svg width="25" height="18" fill="none" xmlns="http://www.w3.org/2000/svg"><path fill-rule="evenodd" clip-rule="evenodd" d="M.007 0h7.999v18h-8V0z" fill="#00319C"/><path fill-rule="evenodd" clip-rule="evenodd" d="M8.007 0h8.002v18H8.007V0z" fill="#FFDE00"/><path fill-rule="evenodd" clip-rule="evenodd" d="M16.008 0h7.999v18h-8V0z" fill="#DE2110"/></svg>
